X:39
T: Megérett a búza...
O: Oroszlány (Komárom), Balogh Vilmosné - Jankó Klára (37), 1952.07
Q: "Tempo guisto" 1/4=107
M:4/4
L:1/4
K:C
G/F/E/F/ G<A | GF E<D |  C2 C z | 
c/B/c/d/ ec | e<d c A | G2 G z | 
c<d e d | c/B/d/c/ B<A | G2 c z | 
G/F/E/F/ G<A | G>F E<D | C2 C z | 

